assets/images/icons/right-arrow-wh.svg

<svg width="22" height="22" viewBox="0 0 22 22" fill="none" xmlns="http://www.w3.org/2000/svg">
<g clip-path="url(#clip0)">
<path d="M14.8238 18.501C14.5136 18.8112 14.0254 18.8112 13.7152 18.501C13.4155 18.2013 13.4155 17.7026 13.7152 17.4036L19.3364 11.7824L0.787226 11.7824C0.354827 11.7824 -3.36945e-05 11.4387 -3.36567e-05 11.0063C-3.36189e-05 10.5739 0.354827 10.2191 0.787226 10.2191L19.3364 10.2191L13.7152 4.60835C13.4155 4.2982 13.4155 3.79873 13.7152 3.49976C14.0254 3.1896 14.5137 3.1896 14.8238 3.49976L21.7757 10.4517C22.0754 10.7514 22.0754 11.2501 21.7757 11.5491L14.8238 18.501Z" fill="white"/>
</g>
<defs>
<clipPath id="clip0">
<rect x="22" y="22" width="22" height="22" transform="rotate(-180 22 22)" fill="white"/>
</clipPath>
</defs>
</svg>

<svg width="22" height="22" fill="none" xmlns="http://www.w3.org/2000/svg"><g clip-path="url(#clip0)"><path d="M14.824 18.501a.777.777 0 01-1.109 0c-.3-.3-.3-.798 0-1.097l5.621-5.622H.787A.78.78 0 010 11.006a.79.79 0 01.787-.787h18.55l-5.622-5.61c-.3-.31-.3-.81 0-1.11a.777.777 0 011.109 0l6.952 6.953c.3.3.3.798 0 1.097l-6.952 6.952z" fill="#fff"/></g><defs><clipPath id="clip0"><path transform="rotate(-180 22 22)" fill="#fff" d="M22 22h22v22H22z"/></clipPath></defs></svg>
